assets/shop-tab/Asset/Swiggy.svg

<svg width="93" height="52" viewBox="0 0 93 52" fill="none" xmlns="http://www.w3.org/2000/svg">
<path fill-rule="evenodd" clip-rule="evenodd" d="M0 8C0 3.58172 3.58172 0 8 0H85C89.4183 0 93 3.58172 93 8V21.1C90.7178 21.5633 89 23.581 89 26C89 28.419 90.7178 30.4367 93 30.9V44C93 48.4183 89.4183 52 85 52H8C3.58172 52 0 48.4183 0 44V30.9C2.28224 30.4367 4 28.419 4 26C4 23.581 2.28224 21.5633 0 21.1V8Z" fill="#F7881F"/>
<path d="M21.2179 35C21.2061 34.9919 21.1931 34.9808 21.1794 34.9691C20.9585 34.7003 19.5919 33.0202 18.1996 30.8653C17.7819 30.1786 17.5107 29.6431 17.5628 29.5046C17.699 29.1445 20.1264 28.9474 20.874 29.2738C21.1013 29.3729 21.0956 29.5041 21.0956 29.5805C21.0956 29.9101 21.079 30.7946 21.079 30.7946C21.0791 30.9774 21.2305 31.1256 21.4169 31.1253C21.6037 31.1253 21.7545 30.9765 21.7538 30.7933L21.7503 28.5893H21.7497C21.7497 28.398 21.5369 28.3503 21.4969 28.3428C21.1067 28.3405 20.3144 28.3381 19.4636 28.3381C17.5863 28.3381 17.1668 28.4138 16.8479 28.2091C16.1569 27.7656 15.0271 24.7767 15.0007 23.0951C14.9632 20.7226 16.3954 18.6687 18.4122 17.6511C19.2547 17.2347 20.2064 17 21.2115 17C24.4035 17 27.0322 19.3647 27.382 22.407C27.3823 22.4093 27.3823 22.4128 27.3829 22.4151C27.4471 23.1506 23.3169 23.3069 22.4999 23.0929C22.3747 23.0601 22.3426 22.9342 22.3426 22.88C22.3417 22.3208 22.3379 20.7468 22.3379 20.7468C22.3373 20.5639 22.1859 20.4156 21.9994 20.416H21.9991C21.813 20.4163 21.6619 20.565 21.6619 20.7482L21.669 23.6475C21.6749 23.8301 21.8309 23.8794 21.8737 23.8877C22.3383 23.8878 23.4248 23.8867 24.4367 23.8867C25.8044 23.8867 26.3789 24.0423 26.7612 24.328C27.0154 24.5182 27.1138 24.8824 27.0278 25.3557C26.2608 29.566 21.4012 34.7823 21.2186 34.9998L21.2179 35ZM34.3976 25.1734C35.6237 25.6892 36.3834 26.2614 36.3834 27.5174C36.3834 28.8005 35.3932 29.6292 33.861 29.6292C32.6194 29.6292 31.6228 29.0773 31.1265 28.1145L31.0461 27.9593L32.5059 27.1292L32.6016 27.2826C32.9302 27.8099 33.2977 28.0347 33.8308 28.0347C34.2902 28.0347 34.5989 27.8348 34.5989 27.5372C34.5989 27.2074 34.3755 27.0838 33.6848 26.787L33.3338 26.6393C32.397 26.2474 31.5292 25.7029 31.5292 24.384C31.5292 23.1988 32.4548 22.3711 33.7802 22.3711C34.7844 22.3711 35.4726 22.7526 35.9464 23.5714L36.0342 23.7234L34.6199 24.6155L34.5224 24.4443C34.286 24.0291 34.0633 23.9459 33.7803 23.9459C33.4845 23.9459 33.2939 24.106 33.2939 24.3543C33.2939 24.6397 33.4343 24.7649 34.0462 25.0252L34.3976 25.1734ZM44.7305 25.4162L45.761 22.5959H47.5298L44.9084 29.7456H44.5156L42.9255 26.3973C42.8515 26.2438 42.7753 26.0533 42.7096 25.8787C42.6423 26.0536 42.5642 26.2446 42.4902 26.398L40.8379 29.7456H40.4477L37.7843 22.5959H39.6738L40.7156 25.4162C40.7822 25.5961 40.8503 25.8154 40.9099 26.0189C40.9807 25.8089 41.0658 25.5821 41.1548 25.3994L42.5232 22.537H42.9017L44.2913 25.3996C44.3799 25.5823 44.4654 25.8092 44.5359 26.0192C44.5958 25.8154 44.6645 25.5961 44.7305 25.4162V25.4162ZM49.5926 29.5403V22.4499H51.3778V29.5403H49.5926ZM57.2311 27.1581V25.5735H60.546V28.7513L60.4775 28.8067C60.0983 29.1123 59.0928 29.6293 57.7308 29.6293C55.4331 29.6293 53.8291 28.135 53.8291 25.9954C53.8291 23.8954 55.3769 22.3711 57.5095 22.3711C58.6823 22.3711 59.5419 22.6956 60.137 23.3632L60.2532 23.4936L59.0364 24.676L58.9042 24.5423C58.5643 24.1984 58.2123 23.9853 57.5095 23.9853C56.4171 23.9853 55.6541 24.8119 55.6541 25.9954C55.6541 27.2283 56.4689 28.0251 57.7308 28.0251C58.1493 28.0251 58.5851 27.9544 58.8817 27.8413V27.1581L57.2311 27.1581ZM66.2779 27.1581V25.5735H69.5928V28.7513L69.5243 28.8067C69.1448 29.1123 68.1396 29.6293 66.7779 29.6293C64.4802 29.6293 62.8759 28.135 62.8759 25.9954C62.8759 23.8954 64.424 22.3711 66.556 22.3711C67.7294 22.3711 68.589 22.6956 69.1838 23.3632L69.3003 23.4936L68.0838 24.676L67.9513 24.5423C67.6113 24.1984 67.2591 23.9853 66.556 23.9853C65.464 23.9853 64.7009 24.8119 64.7009 25.9954C64.7009 27.2283 65.516 28.0251 66.7779 28.0251C67.1965 28.0251 67.632 27.9544 67.9286 27.8413V27.1581L66.2779 27.1581ZM76.1341 22.4499H78L75.4389 27.1681V29.5404H73.644V27.2688L70.9157 22.4499H72.9067L74.1677 24.7106C74.3033 24.9565 74.4449 25.2816 74.552 25.5455C74.6543 25.2837 74.7896 24.9616 74.9242 24.7128L76.1341 22.4499Z" fill="white"/>
</svg>

<svg xmlns="http://www.w3.org/2000/svg" width="93" height="52" fill="none" viewBox="0 0 93 52"><path fill="#f7881f" fill-rule="evenodd" d="M0 8a8 8 0 0 1 8-8h77a8 8 0 0 1 8 8v13.1a5.002 5.002 0 0 0 0 9.8V44a8 8 0 0 1-8 8H8a8 8 0 0 1-8-8V30.9a5.002 5.002 0 0 0 0-9.8z" clip-rule="evenodd"/><path fill="#fff" d="m21.218 35-.039-.03a48 48 0 0 1-2.98-4.105c-.417-.686-.688-1.222-.636-1.36.136-.36 2.563-.558 3.311-.231.227.099.222.23.222.306 0 .33-.017 1.215-.017 1.215 0 .182.151.33.338.33a.334.334 0 0 0 .337-.332l-.004-2.204c0-.191-.213-.239-.253-.246a398 398 0 0 0-2.033-.005c-1.878 0-2.297.076-2.616-.129-.691-.443-1.82-3.432-1.847-5.114-.038-2.372 1.394-4.426 3.411-5.444a6.3 6.3 0 0 1 2.8-.651c3.192 0 5.82 2.365 6.17 5.407v.008c.065.736-4.065.892-4.882.678-.125-.033-.157-.159-.157-.213l-.005-2.133a.335.335 0 0 0-.339-.331.335.335 0 0 0-.337.332l.007 2.9c.006.182.162.231.205.24l2.563-.001c1.367 0 1.942.155 2.324.441.254.19.353.554.267 1.028-.767 4.21-5.627 9.426-5.81 9.644m13.18-9.827c1.226.516 1.985 1.088 1.985 2.344 0 1.284-.99 2.112-2.522 2.112-1.242 0-2.238-.552-2.734-1.515l-.08-.155 1.459-.83.096.154c.328.527.696.752 1.229.752.46 0 .768-.2.768-.498 0-.33-.223-.453-.914-.75l-.351-.148c-.937-.392-1.805-.936-1.805-2.255 0-1.185.926-2.013 2.251-2.013 1.004 0 1.693.382 2.166 1.2l.088.152-1.414.893-.098-.172c-.236-.415-.459-.498-.742-.498-.296 0-.486.16-.486.408 0 .286.14.41.752.671zm10.332.243 1.031-2.82h1.769l-2.622 7.15h-.392l-1.59-3.349a7 7 0 0 1-.216-.518 7 7 0 0 1-.22.519l-1.652 3.348h-.39l-2.664-7.15h1.89l1.042 2.82c.066.18.134.4.194.603.07-.21.156-.437.245-.62l1.368-2.862h.379l1.39 2.863c.088.182.173.41.244.62.06-.205.128-.424.194-.604m4.863 4.124v-7.09h1.785v7.09zm7.638-2.382v-1.585h3.315v3.178l-.069.056c-.379.305-1.384.822-2.746.822-2.298 0-3.902-1.494-3.902-3.634 0-2.1 1.548-3.624 3.68-3.624 1.173 0 2.033.325 2.628.992l.116.13-1.217 1.183-.132-.134c-.34-.344-.692-.557-1.395-.557-1.092 0-1.855.827-1.855 2.01 0 1.233.815 2.03 2.077 2.03.418 0 .854-.07 1.15-.184v-.683zm9.047 0v-1.585h3.315v3.178l-.069.056c-.38.305-1.384.822-2.746.822-2.298 0-3.902-1.494-3.902-3.634 0-2.1 1.548-3.624 3.68-3.624 1.173 0 2.033.325 2.628.992l.116.13-1.216 1.183-.133-.134c-.34-.344-.692-.557-1.395-.557-1.092 0-1.855.827-1.855 2.01 0 1.233.815 2.03 2.077 2.03.418 0 .854-.07 1.15-.184v-.683zm9.856-4.708H78l-2.561 4.718v2.372h-1.795v-2.27l-2.728-4.82h1.99l1.262 2.262c.135.245.277.57.384.835.102-.262.238-.584.372-.833z"/></svg>
